icons/circle/src/actions/symbolic/mail-mark-notjunk-symbolic.svg

<?xml version="1.0" encoding="UTF-8" standalone="no"?>
<svg xmlns:dc="http://purl.org/dc/elements/1.1/" xmlns:cc="http://creativecommons.org/ns#" xmlns:rdf="http://www.w3.org/1999/02/22-rdf-syntax-ns#" xmlns:svg="http://www.w3.org/2000/svg" xmlns="http://www.w3.org/2000/svg" xmlns:sodipodi="http://sodipodi.sourceforge.net/DTD/sodipodi-0.dtd" xmlns:inkscape="http://www.inkscape.org/namespaces/inkscape" height="16" width="16" version="1.1" id="svg6" sodipodi:docname="mail-mark-notjunk.svg" inkscape:version="0.92.3 (2405546, 2018-03-11)">
  <metadata id="metadata12">
    <rdf:RDF>
      <cc:Work rdf:about="">
        <dc:format>image/svg+xml</dc:format>
        <dc:type rdf:resource="http://purl.org/dc/dcmitype/StillImage" />
      </cc:Work>
    </rdf:RDF>
  </metadata>
  <defs id="defs10" />
  <sodipodi:namedview pagecolor="#ffffff" bordercolor="#363636" borderopacity="1" objecttolerance="10" gridtolerance="10" guidetolerance="10" inkscape:pageopacity="0" inkscape:pageshadow="2" inkscape:window-width="1920" inkscape:window-height="962" id="namedview8" showgrid="true" inkscape:zoom="29.5" inkscape:cx="5.7872722" inkscape:cy="6.3685474" inkscape:window-x="0" inkscape:window-y="30" inkscape:window-maximized="1" inkscape:current-layer="svg6">
    <inkscape:grid type="xygrid" id="grid826" />
  </sodipodi:namedview>
  <path style="color:#000000;font-weight:400;line-height:normal;font-family:Sans;-inkscape-font-specification:Sans;text-indent:0;text-align:start;text-decoration:none;text-decoration-line:none;text-transform:none;overflow:visible;fill:#363636;marker:none" d="M 5.2207031 1 L 4.90625 1.28125 L 1.28125 4.90625 L 1 5.21875 L 1 10.779297 L 1.28125 11.09375 L 4.90625 14.71875 L 5.21875 14.998047 L 10.78125 14.998047 L 11.09375 14.71875 L 14.71875 11.09375 L 15 10.779297 L 15 5.2207031 L 14.720703 4.90625 L 11.09375 1.28125 L 10.78125 1.0019531 L 5.625 1.0019531 L 5.2207031 1 z M 4 7 L 12 7 L 12 9 L 4 9 L 4 7 z " id="path2" />
</svg>

<svg width="16" height="16" version="1.1" xmlns="http://www.w3.org/2000/svg">
 <path d="m4 7h8v2h-8z" color="#000000" fill="#363636" font-weight="400" overflow="visible" style="text-decoration-line:none;text-indent:0;text-transform:none"/>
 <path d="m5.219 1-0.313 0.281-3.625 3.625-0.281 0.314v5.56l0.281 0.313 3.625 3.625 0.313 0.281h5.561l0.313-0.281 3.625-3.625 0.281-0.313v-5.56l-0.281-0.313-3.625-3.625-0.313-0.282h-5.56zm0.406 1h4.75l3.625 3.625v4.75l-3.625 3.625h-4.75l-3.625-3.625v-4.75z" color="#000000" fill="#363636" font-weight="400" overflow="visible" style="text-decoration-line:none;text-indent:0;text-transform:none"/>
</svg>
